apps/statesvisited/state-images/MD.svg

<svg height="635" width="1182" xmlns="http://www.w3.org/2000/svg"><path d="m831.65902 265.74891s-5.3454-22.56943-1.7818-24.35123c3.5636-1.78179 5.6424-2.67269 5.6424-2.67269s-2.6727 9.79988-1.1879 14.55134 1.4848 7.42415 3.8606 8.61202c2.3757 1.18786 6.8302 4.45449 6.8302 4.45449s-1.1879 18.70887.8909 18.70887 5.6424-17.22404 5.6424-18.70887 1.7818-9.20595 1.7818-9.20595l-10.9878.29697-6.2363-25.53909-58.5023 10.69078 3.8605 8.31505s8.3151-8.90898 15.1453-8.90898 7.4242.29696 9.206 1.48483c1.7818 1.18786 3.2666 3.56359 3.2666 3.56359s6.5333 3.26663 6.2363 2.37573 2.9696-5.64236 2.9696-5.64236l7.1272 3.26663-5.0484 5.34539s-.297 4.75146-.297 6.53326c0 1.78179-.8909 4.15752 1.1879 5.34539 2.0788 1.18786 11.2847 2.07876 10.3938 1.48483z" fill="#f6d55c" fill-rule="evenodd" opacity=".9" stroke="#000"/></svg>

<?xml version="1.0" encoding="UTF-8" standalone="no"?>
<!-- Created with Inkscape (http://www.inkscape.org/) -->
<svg
   xmlns:dc="http://purl.org/dc/elements/1.1/"
   xmlns:cc="http://web.resource.org/cc/"
   xmlns:rdf="http://www.w3.org/1999/02/22-rdf-syntax-ns#"
   xmlns:svg="http://www.w3.org/2000/svg"
   xmlns="http://www.w3.org/2000/svg"
   xmlns:xlink="http://www.w3.org/1999/xlink"
   xmlns:sodipodi="http://sodipodi.sourceforge.net/DTD/sodipodi-0.dtd"
   xmlns:inkscape="http://www.inkscape.org/namespaces/inkscape"
   id="svg1923"
   sodipodi:version="0.32"
   inkscape:version="0.44"
   width="1182"
   height="635"
   version="1.0"
   sodipodi:docbase="/Users/amyshore/Desktop"
   sodipodi:docname="usa.svg">
  <metadata
     id="metadata1928">
    <rdf:RDF>
      <cc:Work
         rdf:about="">
        <dc:format>image/svg+xml</dc:format>
        <dc:type
           rdf:resource="http://purl.org/dc/dcmitype/StillImage" />
      </cc:Work>
    </rdf:RDF>
  </metadata>
  <defs
     id="defs1926" />
  <sodipodi:namedview
     inkscape:window-height="752"
     inkscape:window-width="1280"
     inkscape:pageshadow="2"
     inkscape:pageopacity="0.0"
     guidetolerance="10.0"
     gridtolerance="10.0"
     objecttolerance="10.0"
     borderopacity="1.0"
     bordercolor="#666666"
     pagecolor="#ffffff"
     id="base"
     inkscape:zoom="0.59527559"
     inkscape:cx="775.234"
     inkscape:cy="319.32597"
     inkscape:window-x="0"
     inkscape:window-y="22"
     inkscape:current-layer="layer2" />
  <g
     inkscape:groupmode="layer"
     id="layer1"
     inkscape:label="bg"
     style="opacity:1;display:none"
     sodipodi:insensitive="true">
    <image
       xlink:href="ElectoralCollege1996-Large.png"
       sodipodi:absref="/Users/amyshore/Desktop/ElectoralCollege1996-Large.png"
       width="1182"
       height="635"
       id="image1930"
       x="-1.3571358"
       y="1.6798911" />
  </g>
  <g
     inkscape:groupmode="layer"
     id="layer2"
     inkscape:label="vector"
     style="opacity:0.9;display:inline"> <path style="fill:#f6d55c;fill-opacity:1;fill-rule:evenodd;stroke:black;stroke-width:1px;stroke-linecap:butt;stroke-linejoin:miter;stroke-opacity:1" d="M 831.65902,265.74891 C 831.65902,265.74891 826.31362,243.17948 829.87722,241.39768 C 833.44082,239.61589 835.51962,238.72499 835.51962,238.72499 C 835.51962,238.72499 832.84692,248.52487 834.33172,253.27633 C 835.81652,258.02779 835.81652,260.70048 838.19232,261.88835 C 840.56802,263.07621 845.02252,266.34284 845.02252,266.34284 C 845.02252,266.34284 843.83462,285.05171 845.91342,285.05171 C 847.99222,285.05171 851.55582,267.82767 851.55582,266.34284 C 851.55582,264.85801 853.33762,257.13689 853.33762,257.13689 L 842.34982,257.43386 L 836.11352,231.89477 L 777.61122,242.58555 L 781.47172,250.9006 C 781.47172,250.9006 789.78682,241.99162 796.61702,241.99162 C 803.44722,241.99162 804.04122,242.28858 805.82302,243.47645 C 807.60482,244.66431 809.08962,247.04004 809.08962,247.04004 C 809.08962,247.04004 815.62292,250.30667 815.32592,249.41577 C 815.02892,248.52487 818.29552,243.77341 818.29552,243.77341 L 825.42272,247.04004 L 820.37432,252.38543 C 820.37432,252.38543 820.07732,257.13689 820.07732,258.91869 C 820.07732,260.70048 819.18642,263.07621 821.26522,264.26408 C 823.34402,265.45194 832.54992,266.34284 831.65902,265.74891 z " id="path9917" />   </g>
</svg>
